<?xml version="1.0" encoding="UTF-8"?>
<map version="1.10" tiledversion="1.11.2" orientation="orthogonal" renderorder="right-down" width="64" height="64" tilewidth="32" tileheight="32" infinite="1" nextlayerid="8" nextobjectid="5">
 <tileset firstgid="1" source="Tilesets/Ancient Ruins-Animated Terrains-8 frames.tsx"/>
 <tileset firstgid="958" source="Tilesets/Terrain - Ancient Ruins.tsx"/>
 <tileset firstgid="3167" source="Tilesets/Ancient Ruins-Tileset - wall 4.tsx"/>
 <tileset firstgid="3407" source="Tilesets/Ancient Ruins-Tileset - wall 6.tsx"/>
 <tileset firstgid="3647" source="Tilesets/Ancient Ruins-Tileset - wall 8.tsx"/>
 <tileset firstgid="3887" source="Tilesets/Ancient Ruins-Tileset - wall 7.tsx"/>
 <tileset firstgid="4127" source="Tilesets/Ancient Ruins-Tileset - wall 2.tsx"/>
 <tileset firstgid="4447" source="Tilesets/Ancient Ruins-Tileset - wall 1.tsx"/>
 <tileset firstgid="4687" source="Tilesets/Ancient Ruins-Tileset-Terrain2.tsx"/>
 <tileset firstgid="8717" source="Tilesets/Ancient Ruins-Tileset - wall 3.tsx"/>
 <tileset firstgid="8957" source="Tilesets/Atlas-Props2.tsx"/>
 <tileset firstgid="11557" source="Tilesets/Atlas-Props.tsx"/>
 <tileset firstgid="14107" source="Tilesets/Ancient Ruins-Animated Terrains2-16 frames-with transparency.tsx"/>
 <layer id="3" name="Ground" width="64" height="64">
  <data encoding="csv">
   <chunk x="0" y="0" width="16" height="16">
4876,4876,4876,4876,4876,4876,4876,4876,4876,4876,4876,4876,4876,4876,4876,4876,
4876,4876,4876,4876,4876,4876,4876,4876,4876,4876,4876,4876,4876,4876,4876,4876,
4876,4876,4876,4876,4876,4876,4876,4876,4876,4876,4876,4876,4876,4876,4876,4876,
4876,4876,4876,4876,4876,4876,4876,4876,4876,4876,4876,4876,4876,4876,4876,4876,
4876,4876,4876,4876,4876,4876,4876,4876,4876,4876,4876,4876,4876,4876,4876,4876,
4876,4876,4876,4876,4876,4876,4876,4876,4876,4876,4876,4876,4876,4876,4876,4876,
4876,4876,4876,4876,4876,4876,4876,4876,4876,4876,4876,4876,4876,4876,4876,4876,
4876,4876,4876,4876,4876,4876,4876,4876,4876,4876,4876,4876,4876,4876,4876,4876,
4876,4876,4876,4876,4876,4876,4876,4876,4876,4876,4876,4876,4876,4876,4876,4876,
4876,4876,4876,4876,4876,4876,4876,4876,4876,4876,4876,4876,4876,4876,4876,4876,
4876,4876,4876,4876,4876,4876,4876,4876,4876,4876,4876,4876,4876,4876,4876,4876,
4876,4876,4876,4876,4876,4876,4876,4876,4876,4876,4876,4876,4876,4876,4876,4876,
4876,4876,4876,4876,4876,4876,4876,4876,4876,4876,4876,4876,4876,4876,4876,4876,
4876,4876,4876,4876,4876,4876,4876,4876,4876,4876,4876,4876,4876,4876,4876,4876,
4876,4876,4876,4876,4876,4876,4876,4876,4876,4876,4876,4876,4876,4876,4876,4876,
4876,4876,4876,4876,4876,4876,4876,4876,4876,4876,4876,4876,4876,4876,4876,4876
</chunk>
   <chunk x="16" y="0" width="16" height="16">
4876,4876,4876,4876,4876,4876,4876,4876,4876,4876,4876,4876,4876,4876,4876,4876,
4876,4876,4876,4876,4876,4876,4876,4876,4876,4876,4876,4876,4876,4876,4876,4876,
4876,4876,4876,4876,4876,4876,4876,4876,4876,4876,4876,4876,4876,4876,8751,8751,
4876,4876,4876,4876,4876,4876,4876,4876,4876,4876,4876,4876,4876,4876,4876,4876,
4876,4876,4876,4876,4876,4876,4876,4876,4876,4876,4876,4876,4876,4876,4876,4876,
4876,4876,4876,4876,4876,4876,4876,4876,4876,4876,4876,4876,4876,4876,4876,4876,
4876,4876,4876,4876,4876,4876,4876,4876,4876,4876,4876,4876,4876,4876,4876,4876,
4876,4876,4876,4876,4876,4876,4876,4876,4876,4876,4876,4876,4876,4876,4876,4876,
4876,4876,4876,4876,4876,4876,4876,4876,4876,4876,4876,4876,4876,4876,4876,4876,
4876,4876,4876,4876,4876,4876,4876,4876,4876,4876,4876,4876,4876,4876,4876,4876,
4876,4876,4876,4876,4876,4876,4876,4876,4876,4876,4876,4876,4876,4876,4876,4876,
4876,4876,4876,4876,4876,4876,4876,4876,4876,4876,4876,4876,4876,4876,4876,4876,
4876,4876,4876,4876,4876,4876,4876,4876,4876,4876,4876,4876,4876,4876,4876,4876,
4876,4876,4876,4876,4876,4876,4876,4876,4876,4876,4876,4876,4876,4876,4876,4876,
4876,4876,4876,4876,4876,4876,4876,4876,4876,4876,4876,4876,4876,4876,4876,4876,
4876,4876,4876,4876,4876,4876,4876,4876,4876,4876,4876,4876,4876,4876,4876,4876
</chunk>
   <chunk x="32" y="0" width="16" height="16">
4876,4876,4876,4876,4876,4876,4876,4876,4876,4876,4876,4876,4876,4876,4876,4876,
4876,4876,4876,4876,4876,4876,4876,4876,4876,4876,4876,4876,4876,4876,4876,4876,
4876,4876,4876,4876,4876,4876,4876,4876,4876,4876,4876,4876,4876,4876,4876,4876,
4876,4876,4876,4876,4876,4876,4876,4876,4876,4876,4876,4876,4876,4876,4876,4876,
4876,4876,4876,4876,4876,4876,4876,4876,4876,4876,4876,4876,4876,4876,4876,4876,
4876,4876,4876,4876,4876,4876,4876,4876,4876,4876,4876,4876,4876,4876,4876,4876,
4876,4876,4876,4876,4876,4876,4876,4876,4876,4876,4876,4876,4876,4876,4876,4876,
4876,4876,4876,4876,4876,4876,4876,4876,4876,4876,4876,4876,4876,4876,4876,4876,
4876,4876,4876,4876,4876,4876,4876,4876,4876,4876,4876,4876,4876,4876,4876,4876,
4876,4876,4876,4876,4876,4876,4876,4876,4876,4876,4876,4876,4876,4876,4876,4876,
4876,4876,4876,4876,4876,4876,4876,4876,4876,4876,4876,4876,4876,4876,4876,4876,
4876,4876,4876,4876,4876,4876,4876,4876,4876,4876,4876,4876,4876,4876,4876,4876,
4876,4876,4876,4876,4876,4876,4876,4876,4876,4876,4876,4876,4876,4876,4876,4876,
4876,4876,4876,4876,4876,4876,4876,4876,4876,4876,4876,4876,4876,4876,4876,4876,
4876,4876,4876,4876,4876,4876,4876,4876,4876,4876,4876,4876,4876,4876,4876,4876,
4876,4876,4876,4876,4876,4876,4876,4876,4876,4876,4876,4876,4876,4876,4876,4876
</chunk>
   <chunk x="48" y="0" width="16" height="16">
4876,4876,4876,4876,4876,4876,4876,4876,4876,4876,4876,4876,4876,4876,4876,4876,
4876,4876,4876,4876,4876,4876,4876,4876,4876,4876,4876,4876,4876,4876,4876,4876,
4876,4876,4876,4876,4876,4876,4876,4876,4876,4876,4876,4876,4876,4876,4876,4876,
4876,4876,4876,4876,4876,4876,4876,4876,4876,4876,4876,4876,4876,4876,4876,4876,
4876,4876,4876,4876,4876,4876,4876,4876,4876,4876,4876,4876,4876,4876,4876,4876,
4876,4876,4876,4876,4876,4876,4876,4876,4876,4876,4876,4876,4876,4876,4876,4876,
4876,4876,4876,4876,4876,4876,4876,4876,4876,4876,4876,4876,4876,4876,4876,4876,
4876,4876,4876,4876,4876,4876,4876,4876,4876,4876,4876,4876,4876,4876,4876,4876,
4876,4876,4876,4876,4876,4876,4876,4876,4876,4876,4876,4876,4876,4876,4876,4876,
4876,4876,4876,4876,4876,4876,4876,4876,4876,4876,4876,4876,4876,4876,4876,4876,
4876,4876,4876,4876,4876,4876,4876,4876,4876,4876,4876,4876,4876,4876,4876,4876,
4876,4876,4876,4876,4876,4876,4876,4876,4876,4876,4876,4876,4876,4876,4876,4876,
4876,4876,4876,4876,4876,4876,4876,4876,4876,4876,4876,4876,4876,4876,4876,4876,
4876,4876,4876,4876,4876,4876,4876,4876,4876,4876,4876,4876,4876,4876,4876,4876,
4876,4876,4876,4876,4876,4876,4876,4876,4876,4876,4876,4876,4876,4876,4876,4876,
4876,4876,4876,4876,4876,4876,4876,4876,4876,4876,4876,4876,4876,4876,4876,4876
</chunk>
   <chunk x="0" y="16" width="16" height="16">
4876,4876,4876,4876,4876,4876,4876,4876,4876,4876,4876,4876,4876,4876,4876,4876,
4876,4876,4876,4876,4876,4876,4876,4876,4876,4876,4876,4876,4876,4876,4876,4876,
4876,4876,4876,4876,4876,4876,4876,4876,4876,4876,4876,4876,4876,4876,4876,4876,
4876,4876,4876,4876,4876,4876,4876,4876,4876,4876,4876,4876,4876,4876,4876,4876,
4876,4876,4876,4876,4876,4876,4876,4876,4876,4876,4876,4876,4876,4876,4876,4876,
4876,4876,4876,4876,4876,4876,4876,4876,4876,4876,4876,4876,4876,4876,4876,4876,
4876,4876,4876,4876,4876,4876,4876,4876,4876,4876,4876,4876,4876,4876,4876,4876,
4876,4876,4876,4876,4876,4876,4876,4876,4876,4876,4876,4876,4876,4876,4876,4876,
4876,4876,4876,4876,4876,4876,4876,4876,4876,4876,4876,4876,4876,4876,4876,4876,
4876,4876,4876,4876,4876,4876,4876,4876,4876,4876,4876,4876,4876,4876,4876,4876,
4876,4876,4876,4876,4876,4876,4876,4876,4876,4876,4876,4876,4876,4876,4876,4876,
4876,4876,4876,4876,4876,4876,4876,4876,4876,4876,4876,4876,4876,4876,4876,4876,
4876,4876,4876,4876,4876,4876,4876,4876,4876,4876,4876,4876,4876,4876,4876,4876,
4876,4876,4876,4876,4876,4876,4876,4876,4876,4876,4876,4876,4876,4876,4876,4876,
4876,4876,4876,4876,4876,4876,4876,4876,4876,4876,4876,4876,4876,4876,4876,4876,
4876,4876,4876,4876,4876,4876,4876,4876,4876,4876,4876,4876,4876,4876,4876,4876
</chunk>
   <chunk x="16" y="16" width="16" height="16">
4876,4876,4876,4876,4876,4876,4876,4876,4876,4876,4876,4876,4876,4876,4876,4876,
4876,4876,4876,4876,4876,4876,4876,4876,4876,4876,4876,4876,4876,4876,4876,4876,
4876,4876,4876,4876,4876,4876,4876,4876,4876,4876,4876,4876,4876,4876,4876,4876,
4876,4876,4876,4876,4876,4876,4876,4876,4876,4876,4876,4876,4876,4876,4876,4876,
4876,4876,4876,4876,4876,4876,4876,4876,4876,4876,4876,4876,4876,4876,4876,4876,
4876,4876,4876,4876,4876,4876,4876,4876,4876,4876,4876,4876,4876,4876,4876,4876,
4876,4876,4876,4876,4876,4876,4876,4876,4876,4876,4876,4876,4876,4876,4876,4876,
4876,4876,4876,4876,4876,4876,4876,4876,4876,4876,4876,4876,4876,4876,4876,4876,
4876,4876,4876,4876,4876,4876,4876,4876,4876,4876,4876,4876,4876,4876,4876,4876,
4876,4876,4876,4876,4876,4876,4876,4876,4876,4876,4876,4876,4876,4876,4876,4876,
4876,4876,4876,4876,4876,4876,4876,4876,4876,4876,4876,4876,4876,4876,4876,4876,
4876,4876,4876,4876,4876,4876,4876,4876,4876,4876,4876,4876,4876,4876,4876,4876,
4876,4876,4876,4876,4876,4876,4876,4876,4876,4876,4876,4876,4876,4876,4876,4876,
4876,4876,4876,4876,4876,4876,4876,4876,4876,4876,4876,4876,4876,4876,4876,4876,
4876,4876,4876,4876,4876,4876,4876,4876,4876,4876,4876,4876,4876,4876,4876,4876,
4876,4876,4876,4876,4876,4876,4876,4876,4876,4876,4876,4876,4876,4876,14369,4876
</chunk>
   <chunk x="32" y="16" width="16" height="16">
4876,4876,4876,4876,4876,4876,4876,4876,4876,4876,4876,4876,4876,4876,4876,4876,
4876,4876,4876,4876,4876,4876,4876,4876,4876,4876,4876,4876,4876,4876,4876,4876,
4876,4876,4876,4876,4876,4876,4876,4876,4876,4876,4876,4876,4876,4876,4876,4876,
4876,4876,4876,4876,4876,4876,4876,4876,4876,4876,4876,4876,4876,4876,4876,4876,
4876,4876,4876,4876,4876,4876,4876,4876,4876,4876,4876,4876,4876,4876,4876,4876,
4876,4876,4876,4876,4876,4876,4876,4876,4876,4876,4876,4876,4876,4876,4876,4876,
4876,4876,4876,4876,4876,4876,4876,4876,4876,4876,4876,4876,4876,4876,4876,4876,
4876,4876,4876,4876,4876,4876,4876,4876,4876,4876,4876,4876,4876,4876,4876,4876,
4876,4876,4876,4876,4876,4876,4876,4876,4876,4876,4876,4876,4876,4876,4876,4876,
4876,4876,4876,4876,4876,4876,4876,4876,4876,4876,4876,4876,4876,4876,4876,4876,
4876,4876,4876,4876,4876,4876,4876,4876,4876,4876,4876,4876,4876,4876,4876,4876,
4876,4876,4876,4876,4876,4876,4876,4876,4876,4876,4876,4876,4876,4876,4876,4876,
4876,4876,4876,4876,4876,4876,4876,4876,4876,4876,4876,4876,4876,4876,4876,4876,
4876,4876,4876,4876,4876,4876,4876,4876,4876,4876,4876,4876,4876,4876,4876,4876,
4876,4876,4876,4876,4876,4876,4876,4876,4876,4876,4876,4876,4876,4876,4876,4876,
4876,4876,4876,4876,4876,4876,4876,4876,4876,4876,4876,4876,4876,4876,4876,4876
</chunk>
   <chunk x="48" y="16" width="16" height="16">
4876,4876,4876,4876,4876,4876,4876,4876,4876,4876,4876,4876,4876,4876,4876,4876,
4876,4876,4876,4876,4876,4876,4876,4876,4876,4876,4876,4876,4876,4876,4876,4876,
4876,4876,4876,4876,4876,4876,4876,4876,4876,4876,4876,4876,4876,4876,4876,4876,
4876,4876,4876,4876,4876,4876,4876,4876,4876,4876,4876,4876,4876,4876,4876,4876,
4876,4876,4876,4876,4876,4876,4876,4876,4876,4876,4876,4876,4876,4876,4876,4876,
4876,4876,4876,4876,4876,4876,4876,4876,4876,4876,4876,4876,4876,4876,4876,4876,
4876,4876,4876,4876,4876,4876,4876,4876,4876,4876,4876,4876,4876,4876,4876,4876,
4876,4876,4876,4876,4876,4876,4876,4876,4876,4876,4876,4876,4876,4876,4876,4876,
4876,4876,4876,4876,4876,4876,4876,4876,4876,4876,4876,4876,4876,4876,4876,4876,
4876,4876,4876,4876,4876,4876,4876,4876,4876,4876,4876,4876,4876,4876,4876,4876,
4876,4876,4876,4876,4876,4876,4876,4876,4876,4876,4876,4876,4876,4876,4876,4876,
4876,4876,4876,4876,4876,4876,4876,4876,4876,4876,4876,4876,4876,4876,4876,4876,
4876,4876,4876,4876,4876,4876,4876,4876,4876,4876,4876,4876,4876,4876,4876,4876,
4876,4876,4876,4876,4876,4876,4876,4876,4876,4876,4876,4876,4876,4876,4876,4876,
4876,4876,4876,4876,4876,4876,4876,4876,4876,4876,4876,4876,4876,4876,4876,4876,
4876,4876,4876,4876,4876,4876,4876,4876,4876,4876,4876,4876,4876,4876,4876,4876
</chunk>
   <chunk x="0" y="32" width="16" height="16">
4876,4876,4876,4876,4876,4876,4876,4876,4876,4876,4876,4876,4876,4876,4876,4876,
4876,4876,4876,4876,4876,4876,4876,4876,4876,4876,4876,4876,4876,4876,4876,4876,
4876,4876,4876,4876,4876,4876,4876,4876,4876,4876,4876,4876,4876,4876,4876,4876,
4876,4876,4876,4876,4876,4876,4876,4876,4876,4876,4876,4876,4876,4876,4876,4876,
4876,4876,4876,4876,4876,4876,4876,4876,4876,4876,4876,4876,4876,4876,4876,4876,
4876,4876,4876,4876,4876,4876,4876,4876,4876,4876,4876,4876,4876,4876,4876,4876,
4876,4876,4876,4876,4876,4876,4876,4876,4876,4876,4876,4876,4876,4876,4876,4876,
4876,4876,4876,4876,4876,4876,4876,4876,4876,4876,4876,4876,4876,4876,4876,4876,
4876,4876,4876,4876,4876,4876,4876,4876,4876,4876,4876,4876,4876,4876,4876,4876,
4876,4876,4876,4876,4876,4876,4876,4876,4876,4876,4876,4876,4876,4876,4876,4876,
4876,4876,4876,4876,4876,4876,4876,4876,4876,4876,4876,4876,4876,4876,4876,4876,
4876,4876,4876,4876,4876,4876,4876,4876,4876,4876,4876,4876,4876,4876,4876,4876,
4876,4876,4876,4876,4876,4876,4876,4876,4876,4876,4876,4876,4876,4876,4876,4876,
4876,4876,4876,4876,4876,4876,4876,4876,4876,4876,4876,4876,4876,4876,4876,4876,
4876,4876,4876,4876,4876,4876,4876,4876,4876,4876,4876,4876,4876,4876,4876,4876,
4876,4876,4876,4876,4876,4876,4876,4876,4876,4876,4876,4876,4876,4876,4876,4876
</chunk>
   <chunk x="16" y="32" width="16" height="16">
4876,4876,4876,4876,4876,4876,4876,4876,4876,4876,4876,4876,4876,4876,4876,4876,
4876,4876,4876,4876,4876,4876,4876,4876,4876,4876,4876,4876,4876,4876,4876,4876,
4876,4876,4876,4876,4876,4876,4876,4876,4876,4876,4876,4876,4876,4876,4876,4876,
4876,4876,4876,4876,4876,4876,4876,4876,4876,4876,4876,4876,4876,4876,4876,4876,
4876,4876,4876,4876,4876,4876,4876,4876,4876,4876,4876,4876,4876,4876,4876,4876,
4876,4876,4876,4876,4876,4876,4876,4876,4876,4876,4876,4876,4876,4876,4876,4876,
4876,4876,4876,4876,4876,4876,4876,4876,4876,4876,4876,4876,4876,4876,4876,4876,
4876,4876,4876,4876,4876,4876,4876,4876,4876,4876,4876,4876,4876,4876,4876,4876,
4876,4876,4876,4876,4876,4876,4876,4876,4876,4876,4876,4876,4876,4876,4876,4876,
4876,4876,4876,4876,4876,4876,4876,4876,4876,4876,4876,4876,4876,4876,4876,4876,
4876,4876,4876,4876,4876,4876,4876,4876,4876,4876,4876,4876,4876,4876,4876,4876,
4876,4876,4876,4876,4876,4876,4876,4876,4876,4876,4876,4876,4876,4876,4876,4876,
4876,4876,4876,4876,4876,4876,4876,4876,4876,4876,4876,4876,4876,4876,4876,4876,
4876,4876,4876,4876,4876,4876,4876,4876,4876,4876,4876,4876,4876,4876,4876,4876,
4876,4876,4876,4876,4876,4876,4876,4876,4876,4876,4876,4876,4876,4876,4876,4876,
4876,4876,4876,4876,4876,4876,4876,4876,4876,4876,4876,4876,4876,4876,4876,4876
</chunk>
   <chunk x="32" y="32" width="16" height="16">
4876,4876,4876,4876,4876,4876,4876,4876,4876,4876,4876,4876,4876,4876,4876,4876,
4876,4876,4876,4876,4876,4876,4876,4876,4876,4876,4876,4876,4876,4876,4876,4876,
4876,4876,4876,4876,4876,4876,4876,4876,4876,4876,4876,4876,4876,4876,4876,4876,
4876,4876,4876,4876,4876,4876,4876,4876,4876,4876,4876,4876,4876,4876,4876,4876,
4876,4876,4876,4876,4876,4876,4876,4876,4876,4876,4876,4876,4876,4876,4876,4876,
4876,4876,4876,4876,4876,4876,4876,4876,4876,4876,4876,4876,4876,4876,4876,4876,
4876,4876,4876,4876,4876,4876,4876,4876,4876,4876,4876,4876,4876,4876,4876,4876,
4876,4876,4876,4876,4876,4876,4876,4876,4876,4876,4876,4876,4876,4876,4876,4876,
4876,4876,4876,4876,4876,4876,4876,4876,4876,4876,4876,4876,4876,4876,4876,4876,
4876,4876,4876,4876,4876,4876,4876,4876,4876,4876,4876,4876,4876,4876,4876,4876,
4876,4876,4876,4876,4876,4876,4876,4876,4876,4876,4876,4876,4876,4876,4876,4876,
4876,4876,4876,4876,4876,4876,4876,4876,4876,4876,4876,4876,4876,4876,4876,4876,
4876,4876,4876,4876,4876,4876,4876,4876,4876,4876,4876,4876,4876,4876,4876,4876,
4876,4876,4876,4876,4876,4876,4876,4876,4876,4876,4876,4876,4876,4876,4876,4876,
4876,4876,4876,4876,4876,4876,4876,4876,4876,4876,4876,4876,4876,4876,4876,4876,
4876,4876,4876,4876,4876,4876,4876,4876,4876,4876,4876,4876,4876,4876,4876,4876
</chunk>
   <chunk x="48" y="32" width="16" height="16">
4876,4876,4876,4876,4876,4876,4876,4876,4876,4876,4876,4876,4876,4876,4876,4876,
4876,4876,4876,4876,4876,4876,4876,4876,4876,4876,4876,4876,4876,4876,4876,4876,
4876,4876,4876,4876,4876,4876,4876,4876,4876,4876,4876,4876,4876,4876,4876,4876,
4876,4876,4876,4876,4876,4876,4876,4876,4876,4876,4876,4876,4876,4876,4876,4876,
4876,4876,4876,4876,4876,4876,4876,4876,4876,4876,4876,4876,4876,4876,4876,4876,
4876,4876,4876,4876,4876,4876,4876,4876,4876,4876,4876,4876,4876,4876,4876,4876,
4876,4876,4876,4876,4876,4876,4876,4876,4876,4876,4876,4876,4876,4876,4876,4876,
4876,4876,4876,4876,4876,4876,4876,4876,4876,4876,4876,4876,4876,4876,4876,4876,
4876,4876,4876,4876,4876,4876,4876,4876,4876,4876,4876,4876,4876,4876,4876,4876,
4876,4876,4876,4876,4876,4876,4876,4876,4876,4876,4876,4876,4876,4876,4876,4876,
4876,4876,4876,4876,4876,4876,4876,4876,4876,4876,4876,4876,4876,4876,4876,4876,
4876,4876,4876,4876,4876,4876,4876,4876,4876,4876,4876,4876,4876,4876,4876,4876,
4876,4876,4876,4876,4876,4876,4876,4876,4876,4876,4876,4876,4876,4876,4876,4876,
4876,4876,4876,4876,4876,4876,4876,4876,4876,4876,4876,4876,4876,4876,4876,4876,
4876,4876,4876,4876,4876,4876,4876,4876,4876,4876,4876,4876,4876,4876,4876,4876,
4876,4876,4876,4876,4876,4876,4876,4876,4876,4876,4876,4876,4876,4876,4876,4876
</chunk>
   <chunk x="0" y="48" width="16" height="16">
4876,4876,4876,4876,4876,4876,4876,4876,4876,4876,4876,4876,4876,4876,4876,4876,
4876,4876,4876,4876,4876,4876,4876,4876,4876,4876,4876,4876,4876,4876,4876,4876,
4876,4876,4876,4876,4876,4876,4876,4876,4876,4876,4876,4876,4876,4876,4876,4876,
4876,4876,4876,4876,4876,4876,4876,4876,4876,4876,4876,4876,4876,4876,4876,4876,
4876,4876,4876,4876,4876,4876,4876,4876,4876,4876,4876,4876,4876,4876,4876,4876,
4876,4876,4876,4876,4876,4876,4876,4876,4876,4876,4876,4876,4876,4876,4876,4876,
4876,4876,4876,4876,4876,4876,4876,4876,4876,4876,4876,4876,4876,4876,4876,4876,
4876,4876,4876,4876,4876,4876,4876,4876,4876,4876,4876,4876,4876,4876,4876,4876,
4876,4876,4876,4876,4876,4876,4876,4876,4876,4876,4876,4876,4876,4876,4876,4876,
4876,4876,4876,4876,4876,4876,4876,4876,4876,4876,4876,4876,4876,4876,4876,4876,
4876,4876,4876,4876,4876,4876,4876,4876,4876,4876,4876,4876,4876,4876,4876,4876,
4876,4876,4876,4876,4876,4876,4876,4876,4876,4876,4876,4876,4876,4876,4876,4876,
4876,4876,4876,4876,4876,4876,4876,4876,4876,4876,4876,4876,4876,4876,4876,4876,
4876,4876,4876,4876,4876,4876,4876,4876,4876,4876,4876,4876,4876,4876,4876,4876,
4876,4876,4876,4876,4876,4876,4876,4876,4876,4876,4876,4876,4876,4876,4876,4876,
4876,4876,4876,4876,4876,4876,4876,4876,4876,4876,4876,4876,4876,4876,4876,4876
</chunk>
   <chunk x="16" y="48" width="16" height="16">
4876,4876,4876,4876,4876,4876,4876,4876,4876,4876,4876,4876,4876,4876,4876,4876,
4876,4876,4876,4876,4876,4876,4876,4876,4876,4876,4876,4876,4876,4876,4876,4876,
4876,4876,4876,4876,4876,4876,4876,4876,4876,4876,4876,4876,4876,4876,4876,4876,
4876,4876,4876,4876,4876,4876,4876,4876,4876,4876,4876,4876,4876,4876,4876,4876,
4876,4876,4876,4876,4876,4876,4876,4876,4876,4876,4876,4876,4876,4876,4876,4876,
4876,4876,4876,4876,4876,4876,4876,4876,4876,4876,4876,4876,4876,4876,4876,4876,
4876,4876,4876,4876,4876,4876,4876,4876,4876,4876,4876,4876,4876,4876,4876,4876,
4876,4876,4876,4876,4876,4876,4876,4876,4876,4876,4876,4876,4876,4876,4876,4876,
4876,4876,4876,4876,4876,4876,4876,4876,4876,4876,4876,4876,4876,4876,4876,4876,
4876,4876,4876,4876,4876,4876,4876,4876,4876,4876,4876,4876,4876,4876,4876,4876,
4876,4876,4876,4876,4876,4876,4876,4876,4876,4876,4876,4876,4876,4876,4876,4876,
4876,4876,4876,4876,4876,4876,4876,4876,4876,4876,4876,4876,4876,4876,4876,4876,
4876,4876,4876,4876,4876,4876,4876,4876,4876,4876,4876,4876,4876,4876,4876,4876,
4876,4876,4876,4876,4876,4876,4876,4876,4876,4876,4876,4876,4876,4876,4876,4876,
4876,4876,4876,4876,4876,4876,4876,4876,4876,4876,4876,4876,4876,4876,4876,4876,
4876,4876,4876,4876,4876,4876,4876,4876,4876,4876,4876,4876,4876,4876,4876,4876
</chunk>
   <chunk x="32" y="48" width="16" height="16">
4876,4876,4876,4876,4876,4876,4876,4876,4876,4876,4876,4876,4876,4876,4876,4876,
4876,4876,4876,4876,4876,4876,4876,4876,4876,4876,4876,4876,4876,4876,4876,4876,
4876,4876,4876,4876,4876,4876,4876,4876,4876,4876,4876,4876,4876,4876,4876,4876,
4876,4876,4876,4876,4876,4876,4876,4876,4876,4876,4876,4876,4876,4876,4876,4876,
4876,4876,4876,4876,4876,4876,4876,4876,4876,4876,4876,4876,4876,4876,4876,4876,
4876,4876,4876,4876,4876,4876,4876,4876,4876,4876,4876,4876,4876,4876,4876,4876,
4876,4876,4876,4876,4876,4876,4876,4876,4876,4876,4876,4876,4876,4876,4876,4876,
4876,4876,4876,4876,4876,4876,4876,4876,4876,4876,4876,4876,4876,4876,4876,4876,
4876,4876,4876,4876,4876,4876,4876,4876,4876,4876,4876,4876,4876,4876,4876,4876,
4876,4876,4876,4876,4876,4876,4876,4876,4876,4876,4876,4876,4876,4876,4876,4876,
4876,4876,4876,4876,4876,4876,4876,4876,4876,4876,4876,4876,4876,4876,4876,4876,
4876,4876,4876,4876,4876,4876,4876,4876,4876,4876,4876,4876,4876,4876,4876,4876,
4876,4876,4876,4876,4876,4876,4876,4876,4876,4876,4876,4876,4876,4876,4876,4876,
4876,4876,4876,4876,4876,4876,4876,4876,4876,4876,4876,4876,4876,4876,4876,4876,
4876,4876,4876,4876,4876,4876,4876,4876,4876,4876,4876,4876,4876,4876,4876,4876,
4876,4876,4876,4876,4876,4876,4876,4876,4876,4876,4876,4876,4876,4876,4876,4876
</chunk>
   <chunk x="48" y="48" width="16" height="16">
4876,4876,4876,4876,4876,4876,4876,4876,4876,4876,4876,4876,4876,4876,4876,4876,
4876,4876,4876,4876,4876,4876,4876,4876,4876,4876,4876,4876,4876,4876,4876,4876,
4876,4876,4876,4876,4876,4876,4876,4876,4876,4876,4876,4876,4876,4876,4876,4876,
4876,4876,4876,4876,4876,4876,4876,4876,4876,4876,4876,4876,4876,4876,4876,4876,
4876,4876,4876,4876,4876,4876,4876,4876,4876,4876,4876,4876,4876,4876,4876,4876,
4876,4876,4876,4876,4876,4876,4876,4876,4876,4876,4876,4876,4876,4876,4876,4876,
4876,4876,4876,4876,4876,4876,4876,4876,4876,4876,4876,4876,4876,4876,4876,4876,
4876,4876,4876,4876,4876,4876,4876,4876,4876,4876,4876,4876,4876,4876,4876,4876,
4876,4876,4876,4876,4876,4876,4876,4876,4876,4876,4876,4876,4876,4876,4876,4876,
4876,4876,4876,4876,4876,4876,4876,4876,4876,4876,4876,4876,4876,4876,4876,4876,
4876,4876,4876,4876,4876,4876,4876,4876,4876,4876,4876,4876,4876,4876,4876,4876,
4876,4876,4876,4876,4876,4876,4876,4876,4876,4876,4876,4876,4876,4876,4876,4876,
4876,4876,4876,4876,4876,4876,4876,4876,4876,4876,4876,4876,4876,4876,4876,4876,
4876,4876,4876,4876,4876,4876,4876,4876,4876,4876,4876,4876,4876,4876,4876,4876,
4876,4876,4876,4876,4876,4876,4876,4876,4876,4876,4876,4876,4876,4876,4876,4876,
4876,4876,4876,4876,4876,4876,4876,4876,4876,4876,4876,4876,4876,4876,4876,4876
</chunk>
   <chunk x="0" y="64" width="16" height="16">
8751,8751,8751,8751,8751,8751,8751,8751,8751,8751,8751,8751,8751,8751,8751,8751,
0,0,0,0,0,0,0,0,0,0,0,0,0,0,0,0,
0,0,0,0,0,0,0,0,0,0,0,0,0,0,0,0,
0,0,0,0,0,0,0,0,0,0,0,0,0,0,0,0,
0,0,0,0,0,0,0,0,0,0,0,0,0,0,0,0,
0,0,0,0,0,0,0,0,0,0,0,0,0,0,0,0,
0,0,0,0,0,0,0,0,0,0,0,0,0,0,0,0,
0,0,0,0,0,0,0,0,0,0,0,0,0,0,0,0,
0,0,0,0,0,0,0,0,0,0,0,0,0,0,0,0,
0,0,0,0,0,0,0,0,0,0,0,0,0,0,0,0,
0,0,0,0,0,0,0,0,0,0,0,0,0,0,0,0,
0,0,0,0,0,0,0,0,0,0,0,0,0,0,0,0,
0,0,0,0,0,0,0,0,0,0,0,0,0,0,0,0,
0,0,0,0,0,0,0,0,0,0,0,0,0,0,0,0,
0,0,0,0,0,0,0,0,0,0,0,0,0,0,0,0,
0,0,0,0,0,0,0,0,0,0,0,0,0,0,0,0
</chunk>
   <chunk x="16" y="64" width="16" height="16">
8751,8751,8751,8751,8751,8751,8751,8751,8751,8751,8751,8751,8751,8751,8751,8751,
0,0,0,0,0,0,0,0,0,0,0,0,0,0,0,0,
0,0,0,0,0,0,0,0,0,0,0,0,0,0,0,0,
0,0,0,0,0,0,0,0,0,0,0,0,0,0,0,0,
0,0,0,0,0,0,0,0,0,0,0,0,0,0,0,0,
0,0,0,0,0,0,0,0,0,0,0,0,0,0,0,0,
0,0,0,0,0,0,0,0,0,0,0,0,0,0,0,0,
0,0,0,0,0,0,0,0,0,0,0,0,0,0,0,0,
0,0,0,0,0,0,0,0,0,0,0,0,0,0,0,0,
0,0,0,0,0,0,0,0,0,0,0,0,0,0,0,0,
0,0,0,0,0,0,0,0,0,0,0,0,0,0,0,0,
0,0,0,0,0,0,0,0,0,0,0,0,0,0,0,0,
0,0,0,0,0,0,0,0,0,0,0,0,0,0,0,0,
0,0,0,0,0,0,0,0,0,0,0,0,0,0,0,0,
0,0,0,0,0,0,0,0,0,0,0,0,0,0,0,0,
0,0,0,0,0,0,0,0,0,0,0,0,0,0,0,0
</chunk>
   <chunk x="32" y="64" width="16" height="16">
8751,8751,8751,8751,8751,8751,8751,8751,8751,8751,8751,8751,8751,8751,8751,8751,
0,0,0,0,0,0,0,0,0,0,0,0,0,0,0,0,
0,0,0,0,0,0,0,0,0,0,0,0,0,0,0,0,
0,0,0,0,0,0,0,0,0,0,0,0,0,0,0,0,
0,0,0,0,0,0,0,0,0,0,0,0,0,0,0,0,
0,0,0,0,0,0,0,0,0,0,0,0,0,0,0,0,
0,0,0,0,0,0,0,0,0,0,0,0,0,0,0,0,
0,0,0,0,0,0,0,0,0,0,0,0,0,0,0,0,
0,0,0,0,0,0,0,0,0,0,0,0,0,0,0,0,
0,0,0,0,0,0,0,0,0,0,0,0,0,0,0,0,
0,0,0,0,0,0,0,0,0,0,0,0,0,0,0,0,
0,0,0,0,0,0,0,0,0,0,0,0,0,0,0,0,
0,0,0,0,0,0,0,0,0,0,0,0,0,0,0,0,
0,0,0,0,0,0,0,0,0,0,0,0,0,0,0,0,
0,0,0,0,0,0,0,0,0,0,0,0,0,0,0,0,
0,0,0,0,0,0,0,0,0,0,0,0,0,0,0,0
</chunk>
   <chunk x="48" y="64" width="16" height="16">
8751,8751,8751,8751,8751,8751,8751,8751,8751,8751,8751,8751,8751,8751,8751,8751,
0,0,0,0,0,0,0,0,0,0,0,0,0,0,0,0,
0,0,0,0,0,0,0,0,0,0,0,0,0,0,0,0,
0,0,0,0,0,0,0,0,0,0,0,0,0,0,0,0,
0,0,0,0,0,0,0,0,0,0,0,0,0,0,0,0,
0,0,0,0,0,0,0,0,0,0,0,0,0,0,0,0,
0,0,0,0,0,0,0,0,0,0,0,0,0,0,0,0,
0,0,0,0,0,0,0,0,0,0,0,0,0,0,0,0,
0,0,0,0,0,0,0,0,0,0,0,0,0,0,0,0,
0,0,0,0,0,0,0,0,0,0,0,0,0,0,0,0,
0,0,0,0,0,0,0,0,0,0,0,0,0,0,0,0,
0,0,0,0,0,0,0,0,0,0,0,0,0,0,0,0,
0,0,0,0,0,0,0,0,0,0,0,0,0,0,0,0,
0,0,0,0,0,0,0,0,0,0,0,0,0,0,0,0,
0,0,0,0,0,0,0,0,0,0,0,0,0,0,0,0,
0,0,0,0,0,0,0,0,0,0,0,0,0,0,0,0
</chunk>
  </data>
 </layer>
 <layer id="4" name="wall" width="64" height="64">
  <data encoding="csv">
   <chunk x="0" y="0" width="16" height="16">
3183,3169,3169,3169,3169,3169,3169,3169,3169,3169,3169,3169,3169,3169,3169,3169,
3199,3218,3233,3233,3233,3233,3233,3233,3233,3233,3233,3233,3233,3233,3233,3233,
3199,2147486839,3265,3265,3265,3265,3265,3265,3265,3265,3265,3265,3265,3265,3265,3265,
3199,3203,0,0,0,0,0,0,0,0,0,0,0,0,0,0,
3199,3203,0,0,0,0,0,0,0,0,0,0,0,0,0,0,
3199,3203,0,0,0,0,0,0,0,0,0,0,0,0,0,0,
3199,3203,0,0,0,0,0,0,0,0,0,0,0,0,0,0,
3199,3203,0,0,0,0,0,0,0,0,0,0,0,0,0,0,
3199,3203,0,0,0,0,0,0,0,0,0,0,0,0,0,0,
3199,3203,0,0,0,0,0,0,0,0,0,0,0,0,0,0,
3199,3203,0,0,0,0,0,0,0,0,0,0,0,0,0,0,
3199,3203,0,0,0,0,0,0,0,0,0,0,0,0,0,0,
3199,3203,0,0,0,0,0,0,0,0,0,0,0,0,0,0,
3199,3203,0,0,0,0,0,0,0,0,0,0,0,0,0,0,
3199,3203,0,0,0,0,0,0,0,0,0,0,0,0,0,0,
3199,3203,0,0,0,0,0,0,0,0,0,0,0,0,0,0
</chunk>
   <chunk x="16" y="0" width="16" height="16">
3169,3169,3169,3169,3169,3169,3169,3169,3169,3169,3169,3169,3169,3169,3169,3169,
3233,3233,3233,3233,3233,3233,3233,3233,3233,3233,3233,3233,3233,3233,3233,3233,
3265,3265,3265,3265,3265,3265,3265,3265,3265,3265,3265,3265,3265,3265,3265,3265,
0,0,0,0,0,0,0,0,0,0,0,0,0,0,0,0,
0,0,0,0,0,0,0,0,0,0,0,0,0,0,0,0,
0,0,0,0,0,0,0,0,0,0,0,0,0,0,0,0,
0,0,0,0,0,0,0,0,0,0,0,0,0,0,0,0,
0,0,0,0,0,0,0,0,0,0,0,0,0,0,0,0,
0,0,0,0,0,0,0,0,0,0,0,0,0,0,0,0,
0,0,0,0,0,0,0,0,0,0,0,0,0,0,0,0,
0,0,0,0,0,0,0,0,0,0,0,0,0,0,0,0,
0,0,0,0,0,0,0,0,0,0,0,0,0,0,0,0,
0,0,0,0,0,0,0,0,0,0,0,0,0,0,0,0,
0,0,0,0,0,0,0,0,0,0,0,0,0,0,0,0,
0,0,0,0,0,0,0,0,0,0,0,0,0,0,0,0,
0,0,0,0,0,0,0,0,0,0,0,0,0,0,0,0
</chunk>
   <chunk x="32" y="0" width="16" height="16">
3169,3169,3169,3169,3169,3169,3169,3169,3169,3169,3169,3169,3169,3169,3169,3169,
3233,3233,3233,3233,3233,3233,3233,3233,3233,3233,3233,3233,3233,3233,3233,3233,
3265,3265,3265,3265,3265,3265,3265,3265,3265,3265,3265,3265,3265,3265,3265,3265,
0,0,0,0,0,0,0,0,0,0,0,0,0,0,0,0,
0,0,0,0,0,0,0,0,0,0,0,0,0,0,0,0,
0,0,0,0,0,0,0,0,0,0,0,0,0,0,0,0,
0,0,0,0,0,0,0,0,0,0,0,0,0,0,0,0,
0,0,0,0,0,0,0,0,0,0,0,0,0,0,0,0,
0,0,0,0,0,0,0,0,0,0,0,0,0,0,0,0,
0,0,0,0,0,0,0,0,0,0,0,0,0,0,0,0,
0,0,0,0,0,0,0,0,0,0,0,0,0,0,0,0,
0,0,0,0,0,0,0,0,0,0,0,0,0,0,0,0,
0,0,0,0,0,0,0,0,0,0,0,0,0,0,0,0,
0,0,0,0,0,0,0,0,0,0,0,0,0,0,0,0,
0,0,0,0,0,0,0,0,0,0,0,0,0,0,0,0,
0,0,0,0,0,0,0,0,0,0,0,0,0,0,0,0
</chunk>
   <chunk x="48" y="0" width="16" height="16">
3169,3169,3169,3169,3169,3169,3169,3169,3169,3169,3169,3169,3169,3169,3169,3187,
3233,3233,3233,3233,3233,3233,3233,3233,3233,3233,3233,3233,3233,3233,3216,3203,
3265,3265,3265,3265,3265,3265,3265,3265,3265,3265,3265,3265,3265,3265,3191,3203,
0,0,0,0,0,0,0,0,0,0,0,0,0,0,3199,3203,
0,0,0,0,0,0,0,0,0,0,0,0,0,0,3199,3203,
0,0,0,0,0,0,0,0,0,0,0,0,0,0,3199,3203,
0,0,0,0,0,0,0,0,0,0,0,0,0,0,3199,3203,
0,0,0,0,0,0,0,0,0,0,0,0,0,0,3199,3203,
0,0,0,0,0,0,0,0,0,0,0,0,0,0,3199,3203,
0,0,0,0,0,0,0,0,0,0,0,0,0,0,3199,3203,
0,0,0,0,0,0,0,0,0,0,0,0,0,0,3199,3203,
0,0,0,0,0,0,0,0,0,0,0,0,0,0,3199,3203,
0,0,0,0,0,0,0,0,0,0,0,0,0,0,3199,3203,
0,0,0,0,0,0,0,0,0,0,0,0,0,0,3199,3203,
0,0,0,0,0,0,0,0,0,0,0,0,0,0,3199,3203,
0,0,0,0,0,0,0,0,0,0,0,0,0,0,3199,3203
</chunk>
   <chunk x="0" y="16" width="16" height="16">
3199,3203,0,0,0,0,0,0,0,0,0,0,0,0,0,0,
3199,3203,0,0,0,0,0,0,0,0,0,0,0,0,0,0,
3199,3203,0,0,0,0,0,0,0,0,0,0,0,0,0,0,
3199,3203,0,0,0,0,0,0,0,0,0,0,0,0,0,0,
3199,3203,0,0,0,0,0,0,0,0,0,0,0,0,0,0,
3199,3203,0,0,0,0,0,0,0,0,0,0,0,0,0,0,
3199,3203,0,0,0,0,0,0,0,0,0,0,0,0,0,0,
3199,3203,0,0,0,0,0,0,0,0,0,0,0,0,0,0,
3199,3203,0,0,0,0,0,0,0,0,0,0,0,0,0,0,
3199,3203,0,0,0,0,0,0,0,0,0,0,0,0,0,0,
3199,3203,0,0,0,0,0,0,0,0,0,0,0,0,0,0,
3199,3203,0,0,0,0,0,0,0,0,0,0,0,0,0,0,
3199,3203,0,0,0,0,0,0,0,0,0,0,0,0,0,0,
3199,3203,0,0,0,0,0,0,0,0,0,0,0,0,0,0,
3199,3203,0,0,0,0,0,0,0,0,0,0,0,0,0,0,
3199,3203,0,0,0,0,0,0,0,0,0,0,0,0,0,0
</chunk>
   <chunk x="48" y="16" width="16" height="16">
0,0,0,0,0,0,0,0,0,0,0,0,0,0,3199,3203,
0,0,0,0,0,0,0,0,0,0,0,0,0,0,3199,3203,
0,0,0,0,0,0,0,0,0,0,0,0,0,0,3199,3203,
0,0,0,0,0,0,0,0,0,0,0,0,0,0,3199,3203,
0,0,0,0,0,0,0,0,0,0,0,0,0,0,3199,3203,
0,0,0,0,0,0,0,0,0,0,0,0,0,0,3199,3203,
0,0,0,0,0,0,0,0,0,0,0,0,0,0,3199,3203,
0,0,0,0,0,0,0,0,0,0,0,0,0,0,3199,3203,
0,0,0,0,0,0,0,0,0,0,0,0,0,0,3199,3203,
0,0,0,0,0,0,0,0,0,0,0,0,0,0,3199,3203,
0,0,0,0,0,0,0,0,0,0,0,0,0,0,3199,3203,
0,0,0,0,0,0,0,0,0,0,0,0,0,0,3199,3203,
0,0,0,0,0,0,0,0,0,0,0,0,0,0,3199,3203,
0,0,0,0,0,0,0,0,0,0,0,0,0,0,3199,3203,
0,0,0,0,0,0,0,0,0,0,0,0,0,0,3199,3203,
0,0,0,0,0,0,0,0,0,0,0,0,0,0,3199,3203
</chunk>
   <chunk x="0" y="32" width="16" height="16">
3199,3203,0,0,0,0,0,0,0,0,0,0,0,0,0,0,
3199,3203,0,0,0,0,0,0,0,0,0,0,0,0,0,0,
3199,3203,0,0,0,0,0,0,0,0,0,0,0,0,0,0,
3199,3203,0,0,0,0,0,0,0,0,0,0,0,0,0,0,
3199,3203,0,0,0,0,0,0,0,0,0,0,0,0,0,0,
3199,3203,0,0,0,0,0,0,0,0,0,0,0,0,0,0,
3199,3203,0,0,0,0,0,0,0,0,0,0,0,0,0,0,
3199,3203,0,0,0,0,0,0,0,0,0,0,0,0,0,0,
3199,3203,0,0,0,0,0,0,0,0,0,0,0,0,0,0,
3199,3203,0,0,0,0,0,0,0,0,0,0,0,0,0,0,
3199,3203,0,0,0,0,0,0,0,0,0,0,0,0,0,0,
3199,3203,0,0,0,0,0,0,0,0,0,0,0,0,0,0,
3199,3203,0,0,0,0,0,0,0,0,0,0,0,0,0,0,
3199,3203,0,0,0,0,0,0,0,0,0,0,0,0,0,0,
3199,3203,0,0,0,0,0,0,0,0,0,0,0,0,0,0,
3199,3203,0,0,0,0,0,0,0,0,0,0,0,0,0,0
</chunk>
   <chunk x="48" y="32" width="16" height="16">
0,0,0,0,0,0,0,0,0,0,0,0,0,0,3199,3203,
0,0,0,0,0,0,0,0,0,0,0,0,0,0,3199,3203,
0,0,0,0,0,0,0,0,0,0,0,0,0,0,3199,3203,
0,0,0,0,0,0,0,0,0,0,0,0,0,0,3199,3203,
0,0,0,0,0,0,0,0,0,0,0,0,0,0,3199,3203,
0,0,0,0,0,0,0,0,0,0,0,0,0,0,3199,3203,
0,0,0,0,0,0,0,0,0,0,0,0,0,0,3199,3203,
0,0,0,0,0,0,0,0,0,0,0,0,0,0,3199,3203,
0,0,0,0,0,0,0,0,0,0,0,0,0,0,3199,3203,
0,0,0,0,0,0,0,0,0,0,0,0,0,0,3199,3203,
0,0,0,0,0,0,0,0,0,0,0,0,0,0,3199,3203,
0,0,0,0,0,0,0,0,0,0,0,0,0,0,3199,3203,
0,0,0,0,0,0,0,0,0,0,0,0,0,0,3199,3203,
0,0,0,0,0,0,0,0,0,0,0,0,0,0,3199,3203,
0,0,0,0,0,0,0,0,0,0,0,0,0,0,3199,3203,
0,0,0,0,0,0,0,0,0,0,0,0,0,0,3199,3203
</chunk>
   <chunk x="0" y="48" width="16" height="16">
3199,3203,0,0,0,0,0,0,0,0,0,0,0,0,0,0,
3199,3203,0,0,0,0,0,0,0,0,0,0,0,0,0,0,
3199,3203,0,0,0,0,0,0,0,0,0,0,0,0,0,0,
3199,3203,0,0,0,0,0,0,0,0,0,0,0,0,0,0,
3199,3203,0,0,0,0,0,0,0,0,0,0,0,0,0,0,
3199,3203,0,0,0,0,0,0,0,0,0,0,0,0,0,0,
3199,3203,0,0,0,0,0,0,0,0,0,0,0,0,0,0,
3199,3203,0,0,0,0,0,0,0,0,0,0,0,0,0,0,
3199,3203,0,0,0,0,0,0,0,0,0,0,0,0,0,0,
3199,3203,0,0,0,0,0,0,0,0,0,0,0,0,0,0,
3199,3203,0,0,0,0,0,0,0,0,0,0,0,0,0,0,
3199,3203,0,0,0,0,0,0,0,0,0,0,0,0,0,0,
3199,3203,0,0,0,0,0,0,0,0,0,0,0,0,0,0,
3199,3203,0,0,0,0,0,0,0,0,0,0,0,0,0,0,
3199,3186,3169,3169,3169,3169,3169,3169,3169,3169,3169,3169,3169,3169,3169,3169,
3215,3233,3233,3233,3233,3233,3233,3233,3233,3233,3233,3233,3233,3233,3233,3233
</chunk>
   <chunk x="16" y="48" width="16" height="16">
0,0,0,0,0,0,0,0,0,0,0,0,0,0,0,0,
0,0,0,0,0,0,0,0,0,0,0,0,0,0,0,0,
0,0,0,0,0,0,0,0,0,0,0,0,0,0,0,0,
0,0,0,0,0,0,0,0,0,0,0,0,0,0,0,0,
0,0,0,0,0,0,0,0,0,0,0,0,0,0,0,0,
0,0,0,0,0,0,0,0,0,0,0,0,0,0,0,0,
0,0,0,0,0,0,0,0,0,0,0,0,0,0,0,0,
0,0,0,0,0,0,0,0,0,0,0,0,0,0,0,0,
0,0,0,0,0,0,0,0,0,0,0,0,0,0,0,0,
0,0,0,0,0,0,0,0,0,0,0,0,0,0,0,0,
0,0,0,0,0,0,0,0,0,0,0,0,0,0,0,0,
0,0,0,0,0,0,0,0,0,0,0,0,0,0,0,0,
0,0,0,0,0,0,0,0,0,0,0,0,0,0,0,0,
0,0,0,0,0,0,0,0,0,0,0,0,0,0,0,0,
3169,3169,3169,3169,3169,3169,3169,3169,3169,3169,3169,3169,3169,3169,3169,3169,
3233,3233,3233,3233,3233,3233,3233,3233,3233,3233,3233,3233,3233,3233,3233,3233
</chunk>
   <chunk x="32" y="48" width="16" height="16">
0,0,0,0,0,0,0,0,0,0,0,0,0,0,0,0,
0,0,0,0,0,0,0,0,0,0,0,0,0,0,0,0,
0,0,0,0,0,0,0,0,0,0,0,0,0,0,0,0,
0,0,0,0,0,0,0,0,0,0,0,0,0,0,0,0,
0,0,0,0,0,0,0,0,0,0,0,0,0,0,0,0,
0,0,0,0,0,0,0,0,0,0,0,0,0,0,0,0,
0,0,0,0,0,0,0,0,0,0,0,0,0,0,0,0,
0,0,0,0,0,0,0,0,0,0,0,0,0,0,0,0,
0,0,0,0,0,0,0,0,0,0,0,0,0,0,0,0,
0,0,0,0,0,0,0,0,0,0,0,0,0,0,0,0,
0,0,0,0,0,0,0,0,0,0,0,0,0,0,0,0,
0,0,0,0,0,0,0,0,0,0,0,0,0,0,0,0,
0,0,0,0,0,0,0,0,0,0,0,0,0,0,0,0,
0,0,0,0,0,0,0,0,0,0,0,0,0,0,0,0,
3169,3169,3169,3169,3169,3169,3169,3169,3169,3169,3169,3169,3169,3169,3169,3169,
3233,3233,3233,3233,3233,3233,3233,3233,3233,3233,3233,3233,3233,3233,3233,3233
</chunk>
   <chunk x="48" y="48" width="16" height="16">
0,0,0,0,0,0,0,0,0,0,0,0,0,0,3199,3203,
0,0,0,0,0,0,0,0,0,0,0,0,0,0,3199,3203,
0,0,0,0,0,0,0,0,0,0,0,0,0,0,3199,3203,
0,0,0,0,0,0,0,0,0,0,0,0,0,0,3199,3203,
0,0,0,0,0,0,0,0,0,0,0,0,0,0,3199,3203,
0,0,0,0,0,0,0,0,0,0,0,0,0,0,3199,3203,
0,0,0,0,0,0,0,0,0,0,0,0,0,0,3199,3203,
0,0,0,0,0,0,0,0,0,0,0,0,0,0,3199,3203,
0,0,0,0,0,0,0,0,0,0,0,0,0,0,3199,3203,
0,0,0,0,0,0,0,0,0,0,0,0,0,0,3199,3203,
0,0,0,0,0,0,0,0,0,0,0,0,0,0,3199,3203,
0,0,0,0,0,0,0,0,0,0,0,0,0,0,3199,3203,
0,0,0,0,0,0,0,0,0,0,0,0,0,0,3199,3203,
0,0,0,0,0,0,0,0,0,0,0,0,0,0,3199,3203,
3169,3169,3169,3169,3169,3169,3169,3169,3169,3169,3169,3169,3169,3169,3184,3203,
3233,3233,3233,3233,3233,3233,3233,3233,3233,3233,3233,3233,3233,3233,3233,3219
</chunk>
   <chunk x="0" y="64" width="16" height="16">
3264,3265,3265,3265,3265,3265,3265,3265,3265,3265,3265,3265,3265,3265,3265,3265,
0,0,0,0,0,0,0,0,0,0,0,0,0,0,0,0,
0,0,0,0,0,0,0,0,0,0,0,0,0,0,0,0,
0,0,0,0,0,0,0,0,0,0,0,0,0,0,0,0,
0,0,0,0,0,0,0,0,0,0,0,0,0,0,0,0,
0,0,0,0,0,0,0,0,0,0,0,0,0,0,0,0,
0,0,0,0,0,0,0,0,0,0,0,0,0,0,0,0,
0,0,0,0,0,0,0,0,0,0,0,0,0,0,0,0,
0,0,0,0,0,0,0,0,0,0,0,0,0,0,0,0,
0,0,0,0,0,0,0,0,0,0,0,0,0,0,0,0,
0,0,0,0,0,0,0,0,0,0,0,0,0,0,0,0,
0,0,0,0,0,0,0,0,0,0,0,0,0,0,0,0,
0,0,0,0,0,0,0,0,0,0,0,0,0,0,0,0,
0,0,0,0,0,0,0,0,0,0,0,0,0,0,0,0,
0,0,0,0,0,0,0,0,0,0,0,0,0,0,0,0,
0,0,0,0,0,0,0,0,0,0,0,0,0,0,0,0
</chunk>
   <chunk x="16" y="64" width="16" height="16">
3265,3265,3265,3265,3265,3265,3265,3265,3265,3265,3265,3265,3265,3265,3265,3265,
0,0,0,0,0,0,0,0,0,0,0,0,0,0,0,0,
0,0,0,0,0,0,0,0,0,0,0,0,0,0,0,0,
0,0,0,0,0,0,0,0,0,0,0,0,0,0,0,0,
0,0,0,0,0,0,0,0,0,0,0,0,0,0,0,0,
0,0,0,0,0,0,0,0,0,0,0,0,0,0,0,0,
0,0,0,0,0,0,0,0,0,0,0,0,0,0,0,0,
0,0,0,0,0,0,0,0,0,0,0,0,0,0,0,0,
0,0,0,0,0,0,0,0,0,0,0,0,0,0,0,0,
0,0,0,0,0,0,0,0,0,0,0,0,0,0,0,0,
0,0,0,0,0,0,0,0,0,0,0,0,0,0,0,0,
0,0,0,0,0,0,0,0,0,0,0,0,0,0,0,0,
0,0,0,0,0,0,0,0,0,0,0,0,0,0,0,0,
0,0,0,0,0,0,0,0,0,0,0,0,0,0,0,0,
0,0,0,0,0,0,0,0,0,0,0,0,0,0,0,0,
0,0,0,0,0,0,0,0,0,0,0,0,0,0,0,0
</chunk>
   <chunk x="32" y="64" width="16" height="16">
3265,3265,3265,3265,3265,3265,3265,3265,3265,3265,3265,3265,3265,3265,3265,3265,
0,0,0,0,0,0,0,0,0,0,0,0,0,0,0,0,
0,0,0,0,0,0,0,0,0,0,0,0,0,0,0,0,
0,0,0,0,0,0,0,0,0,0,0,0,0,0,0,0,
0,0,0,0,0,0,0,0,0,0,0,0,0,0,0,0,
0,0,0,0,0,0,0,0,0,0,0,0,0,0,0,0,
0,0,0,0,0,0,0,0,0,0,0,0,0,0,0,0,
0,0,0,0,0,0,0,0,0,0,0,0,0,0,0,0,
0,0,0,0,0,0,0,0,0,0,0,0,0,0,0,0,
0,0,0,0,0,0,0,0,0,0,0,0,0,0,0,0,
0,0,0,0,0,0,0,0,0,0,0,0,0,0,0,0,
0,0,0,0,0,0,0,0,0,0,0,0,0,0,0,0,
0,0,0,0,0,0,0,0,0,0,0,0,0,0,0,0,
0,0,0,0,0,0,0,0,0,0,0,0,0,0,0,0,
0,0,0,0,0,0,0,0,0,0,0,0,0,0,0,0,
0,0,0,0,0,0,0,0,0,0,0,0,0,0,0,0
</chunk>
   <chunk x="48" y="64" width="16" height="16">
3265,3265,3265,3265,3265,3265,3265,3265,3265,3265,3265,3265,3265,3265,3265,3266,
0,0,0,0,0,0,0,0,0,0,0,0,0,0,0,0,
0,0,0,0,0,0,0,0,0,0,0,0,0,0,0,0,
0,0,0,0,0,0,0,0,0,0,0,0,0,0,0,0,
0,0,0,0,0,0,0,0,0,0,0,0,0,0,0,0,
0,0,0,0,0,0,0,0,0,0,0,0,0,0,0,0,
0,0,0,0,0,0,0,0,0,0,0,0,0,0,0,0,
0,0,0,0,0,0,0,0,0,0,0,0,0,0,0,0,
0,0,0,0,0,0,0,0,0,0,0,0,0,0,0,0,
0,0,0,0,0,0,0,0,0,0,0,0,0,0,0,0,
0,0,0,0,0,0,0,0,0,0,0,0,0,0,0,0,
0,0,0,0,0,0,0,0,0,0,0,0,0,0,0,0,
0,0,0,0,0,0,0,0,0,0,0,0,0,0,0,0,
0,0,0,0,0,0,0,0,0,0,0,0,0,0,0,0,
0,0,0,0,0,0,0,0,0,0,0,0,0,0,0,0,
0,0,0,0,0,0,0,0,0,0,0,0,0,0,0,0
</chunk>
  </data>
 </layer>
 <objectgroup id="6" name="Object Layer 1">
  <object id="3" name="PlayerSpawnPoint" type="PlayerSpawnPoint" x="1021.82" y="974.424">
   <point/>
  </object>
 </objectgroup>
 <layer id="7" name="Tile Layer 3" width="64" height="64">
  <data encoding="csv">
   <chunk x="16" y="16" width="16" height="16">
0,0,0,0,0,0,0,0,0,0,0,0,0,0,0,0,
0,0,0,0,0,0,0,0,0,0,0,0,0,0,0,0,
0,0,0,0,0,0,0,0,0,0,0,0,0,0,0,0,
0,0,0,0,0,0,0,0,0,0,0,0,0,0,0,0,
0,0,0,0,0,0,0,0,0,0,0,0,0,0,0,0,
0,0,0,0,0,0,0,0,0,0,0,0,0,0,0,0,
0,0,0,0,0,0,0,0,0,0,0,0,0,0,0,0,
0,0,0,0,0,0,0,0,0,0,0,0,0,0,0,0,
0,0,0,0,0,0,0,0,0,0,0,0,0,0,0,0,
0,0,0,0,0,0,0,0,0,0,0,0,0,0,0,0,
0,0,0,0,0,0,0,0,0,0,0,0,0,0,0,0,
0,0,0,0,0,0,0,0,0,0,0,0,0,0,0,0,
0,0,0,0,0,0,0,0,0,0,0,0,0,0,0,0,
0,0,0,0,0,0,0,0,0,0,0,0,0,0,0,0,
0,0,0,0,0,0,0,0,0,0,0,0,0,0,0,0,
0,0,0,0,0,0,0,0,0,12023,12024,12025,12026,0,0,0
</chunk>
   <chunk x="32" y="16" width="16" height="16">
0,0,0,0,0,0,0,0,0,0,0,0,0,0,0,0,
0,0,0,0,0,0,0,0,0,0,0,0,0,0,0,0,
0,0,0,0,0,0,0,0,0,0,0,0,0,0,0,0,
0,0,0,0,0,0,0,0,0,0,0,0,0,0,0,0,
0,0,0,0,0,0,0,0,0,0,0,0,0,0,0,0,
0,0,0,0,0,0,0,0,0,0,0,0,0,0,0,0,
0,0,0,0,0,0,0,0,0,0,0,0,0,0,0,0,
0,0,0,0,0,0,0,0,0,0,0,0,0,0,0,0,
0,0,0,0,0,0,0,0,0,0,0,0,0,0,0,0,
0,0,0,0,0,0,0,0,0,0,0,0,0,0,0,0,
0,0,0,0,0,0,0,0,0,0,0,0,0,0,0,0,
0,0,0,0,0,0,0,0,0,0,0,0,0,0,0,0,
0,0,0,0,0,0,0,0,0,0,0,0,0,0,0,0,
0,0,0,0,0,0,0,0,0,0,0,0,0,0,0,0,
12023,12024,12025,12026,0,0,0,0,0,0,0,0,0,0,0,0,
12073,12074,12075,12076,0,0,0,0,0,0,0,0,0,0,0,0
</chunk>
   <chunk x="16" y="32" width="16" height="16">
0,0,0,0,0,0,0,0,0,12073,12074,12075,12076,0,0,0,
0,0,0,0,0,0,0,0,0,12123,12124,12125,12126,0,0,0,
0,0,0,0,0,0,0,0,0,12173,12174,12175,12176,0,0,0,
0,0,0,0,0,0,0,0,0,12223,12224,12225,12226,0,0,0,
0,0,0,0,0,0,0,0,0,12273,12274,12275,12276,0,0,0,
0,0,0,0,0,0,0,0,0,0,0,0,0,0,0,0,
0,0,0,0,0,0,0,0,0,0,0,0,0,0,0,0,
0,0,0,0,0,0,0,0,0,0,0,0,0,0,0,0,
0,0,0,0,0,0,0,0,0,0,0,0,0,0,0,0,
0,0,0,0,0,0,0,0,0,0,0,0,0,0,0,0,
0,0,0,0,0,0,0,0,0,0,0,0,0,0,0,0,
0,0,0,0,0,0,0,0,0,0,0,0,0,0,0,0,
0,0,0,0,0,0,0,0,0,0,0,0,0,0,0,0,
0,0,0,0,0,0,0,0,0,0,0,0,0,0,0,0,
0,0,0,0,0,0,0,0,0,0,0,0,0,0,0,0,
0,0,0,0,0,0,0,0,0,0,0,0,0,0,0,0
</chunk>
   <chunk x="32" y="32" width="16" height="16">
12123,12124,12125,12126,0,0,0,0,0,0,0,0,0,0,0,0,
12173,12174,12175,12176,0,0,0,0,0,0,0,0,0,0,0,0,
12223,12224,12225,12226,0,0,0,0,0,0,0,0,0,0,0,0,
12273,12274,12275,12276,0,0,0,0,0,0,0,0,0,0,0,0,
0,0,0,0,0,0,0,0,0,0,0,0,0,0,0,0,
0,0,0,0,0,0,0,0,0,0,0,0,0,0,0,0,
0,0,0,0,0,0,0,0,0,0,0,0,0,0,0,0,
0,0,0,0,0,0,0,0,0,0,0,0,0,0,0,0,
0,0,0,0,0,0,0,0,0,0,0,0,0,0,0,0,
0,0,0,0,0,0,0,0,0,0,0,0,0,0,0,0,
0,0,0,0,0,0,0,0,0,0,0,0,0,0,0,0,
0,0,0,0,0,0,0,0,0,0,0,0,0,0,0,0,
0,0,0,0,0,0,0,0,0,0,0,0,0,0,0,0,
0,0,0,0,0,0,0,0,0,0,0,0,0,0,0,0,
0,0,0,0,0,0,0,0,0,0,0,0,0,0,0,0,
0,0,0,0,0,0,0,0,0,0,0,0,0,0,0,0
</chunk>
   <chunk x="32" y="48" width="16" height="16">
0,0,0,0,0,0,0,0,0,0,0,0,0,0,0,0,
0,0,0,0,0,0,0,0,0,0,0,0,0,0,0,0,
0,0,0,0,0,0,0,0,0,0,0,0,0,0,0,0,
0,0,0,0,0,0,0,0,0,0,0,0,0,0,0,0,
0,0,0,0,0,0,0,0,0,0,0,0,0,0,0,0,
0,0,0,0,0,0,0,0,0,0,0,0,0,0,0,0,
0,0,0,0,0,0,0,0,0,0,0,0,0,0,0,0,
0,0,0,0,0,0,0,0,0,0,0,0,0,0,0,0,
0,0,0,0,0,0,0,0,0,0,0,0,0,0,0,0,
0,0,0,0,0,0,0,0,0,0,0,0,0,0,0,0,
0,0,0,0,0,0,0,0,0,0,0,0,0,0,0,0,
0,0,0,0,0,0,0,0,0,0,0,0,0,0,12023,12024,
0,0,0,0,0,0,0,0,0,0,0,0,0,0,12073,12074,
0,0,0,0,0,0,0,0,0,0,0,0,0,0,12123,12124,
0,0,0,0,0,0,0,0,0,0,0,0,0,0,12173,12174,
0,0,0,0,0,0,0,0,0,0,0,0,0,0,12223,12224
</chunk>
   <chunk x="48" y="48" width="16" height="16">
0,0,0,0,0,0,0,0,0,0,0,0,0,0,0,0,
0,0,0,0,0,0,0,0,0,0,0,0,0,0,0,0,
0,0,0,0,0,0,0,0,0,0,0,0,0,0,0,0,
0,0,0,0,0,0,0,0,0,0,0,0,0,0,0,0,
0,0,0,0,0,0,0,0,0,0,0,0,0,0,0,0,
0,0,0,0,0,0,0,0,0,0,0,0,0,0,0,0,
0,0,0,0,0,0,0,0,0,0,0,0,0,0,0,0,
0,0,0,0,0,0,0,0,0,0,0,0,0,0,0,0,
0,0,0,0,0,0,0,0,0,0,0,0,0,0,0,0,
0,0,0,0,0,0,0,0,0,0,0,0,0,0,0,0,
0,0,0,0,0,0,0,0,0,0,0,0,0,0,0,0,
12025,12026,0,0,0,0,0,0,0,0,0,0,0,0,0,0,
12075,12076,0,0,0,0,0,0,0,0,0,0,0,0,0,0,
12125,12126,0,0,0,0,0,0,0,0,0,0,0,0,0,0,
12175,12176,0,0,0,0,0,0,0,0,0,0,0,0,0,0,
12225,12226,0,0,0,0,0,0,0,0,0,0,0,0,0,0
</chunk>
   <chunk x="32" y="64" width="16" height="16">
0,0,0,0,0,0,0,0,0,0,0,0,0,0,12273,12274,
0,0,0,0,0,0,0,0,0,0,0,0,0,0,0,0,
0,0,0,0,0,0,0,0,0,0,0,0,0,0,0,0,
0,0,0,0,0,0,0,0,0,0,0,0,0,0,0,0,
0,0,0,0,0,0,0,0,0,0,0,0,0,0,0,0,
0,0,0,0,0,0,0,0,0,0,0,0,0,0,0,0,
0,0,0,0,0,0,0,0,0,0,0,0,0,0,0,0,
0,0,0,0,0,0,0,0,0,0,0,0,0,0,0,0,
0,0,0,0,0,0,0,0,0,0,0,0,0,0,0,0,
0,0,0,0,0,0,0,0,0,0,0,0,0,0,0,0,
0,0,0,0,0,0,0,0,0,0,0,0,0,0,0,0,
0,0,0,0,0,0,0,0,0,0,0,0,0,0,0,0,
0,0,0,0,0,0,0,0,0,0,0,0,0,0,0,0,
0,0,0,0,0,0,0,0,0,0,0,0,0,0,0,0,
0,0,0,0,0,0,0,0,0,0,0,0,0,0,0,0,
0,0,0,0,0,0,0,0,0,0,0,0,0,0,0,0
</chunk>
   <chunk x="48" y="64" width="16" height="16">
12275,12276,0,0,0,0,0,0,0,0,0,0,0,0,0,0,
0,0,0,0,0,0,0,0,0,0,0,0,0,0,0,0,
0,0,0,0,0,0,0,0,0,0,0,0,0,0,0,0,
0,0,0,0,0,0,0,0,0,0,0,0,0,0,0,0,
0,0,0,0,0,0,0,0,0,0,0,0,0,0,0,0,
0,0,0,0,0,0,0,0,0,0,0,0,0,0,0,0,
0,0,0,0,0,0,0,0,0,0,0,0,0,0,0,0,
0,0,0,0,0,0,0,0,0,0,0,0,0,0,0,0,
0,0,0,0,0,0,0,0,0,0,0,0,0,0,0,0,
0,0,0,0,0,0,0,0,0,0,0,0,0,0,0,0,
0,0,0,0,0,0,0,0,0,0,0,0,0,0,0,0,
0,0,0,0,0,0,0,0,0,0,0,0,0,0,0,0,
0,0,0,0,0,0,0,0,0,0,0,0,0,0,0,0,
0,0,0,0,0,0,0,0,0,0,0,0,0,0,0,0,
0,0,0,0,0,0,0,0,0,0,0,0,0,0,0,0,
0,0,0,0,0,0,0,0,0,0,0,0,0,0,0,0
</chunk>
  </data>
 </layer>
</map>
