<?xml version="1.0" encoding="UTF-8"?>
<map version="1.10" tiledversion="1.11.2" orientation="orthogonal" renderorder="right-down" width="30" height="30" tilewidth="32" tileheight="32" infinite="1" nextlayerid="5" nextobjectid="1">
 <tileset firstgid="1" source="Tileset - wall 2.tsx"/>
 <tileset firstgid="241" source="Tileset - wall 1.tsx"/>
 <tileset firstgid="609" source="Tileset-Terrain-old prison.tsx"/>
 <group id="3" name="Ground">
  <layer id="1" name="terrain" width="30" height="30">
   <data encoding="csv">
    <chunk x="-16" y="0" width="16" height="16">
0,0,0,0,0,0,0,0,0,0,0,0,0,0,0,0,
0,0,0,0,0,0,0,0,0,0,0,0,0,0,0,0,
0,0,0,0,0,0,0,0,0,0,0,0,0,0,0,0,
0,0,0,0,0,0,0,0,0,0,0,0,0,0,0,0,
0,0,0,0,0,0,0,0,257,243,243,243,243,243,243,243,
0,0,0,0,0,0,0,0,273,566,550,546,580,582,588,275,
0,0,0,0,0,0,0,0,273,549,545,551,565,581,545,566,
0,0,0,0,0,0,0,0,273,571,567,567,571,567,578,580,
0,0,0,0,0,0,0,0,273,590,554,547,545,549,567,565,
0,0,0,0,0,0,0,0,273,546,546,562,565,580,547,582,
0,0,0,0,0,0,0,0,273,581,581,582,566,582,565,551,
0,0,0,0,0,0,0,0,273,566,584,567,582,566,584,580,
0,0,0,0,0,0,0,0,273,581,550,550,586,561,584,563,
0,0,0,0,0,0,0,0,273,561,565,545,565,582,581,565,
0,0,0,0,0,0,0,0,273,549,550,566,566,565,578,549,
0,0,0,0,0,0,0,0,273,549,584,545,565,584,546,558
</chunk>
    <chunk x="0" y="0" width="16" height="16">
0,0,0,0,0,0,0,0,0,0,0,0,0,0,0,0,
0,0,0,0,0,0,0,0,0,0,0,0,0,0,0,0,
0,0,0,0,0,0,0,0,0,0,0,0,0,0,0,0,
0,0,0,0,0,0,0,0,0,0,0,0,0,0,0,0,
243,243,243,243,243,243,243,243,261,0,0,0,0,0,0,0,
275,275,566,551,578,275,275,551,277,0,0,0,0,0,0,0,
545,565,582,566,547,581,584,275,277,0,0,0,0,0,0,0,
565,551,566,563,275,275,585,550,277,0,0,0,0,0,0,0,
551,546,567,549,564,499,577,585,277,0,0,0,0,0,0,0,
275,584,275,578,275,581,510,275,277,0,0,0,0,0,0,0,
521,562,565,549,588,567,565,565,277,0,0,0,0,0,0,0,
501,581,563,566,550,539,550,582,277,0,0,0,0,0,0,0,
550,584,582,581,562,275,565,563,277,0,0,0,0,0,0,0,
582,584,577,584,549,532,565,584,277,0,0,0,0,0,0,0,
550,550,565,584,275,581,583,551,277,0,0,0,0,0,0,0,
565,566,567,566,565,275,581,551,277,0,0,0,0,0,0,0
</chunk>
    <chunk x="-16" y="16" width="16" height="16">
0,0,0,0,0,0,0,0,273,549,562,550,567,545,545,566,
0,0,0,0,0,0,0,0,289,307,307,307,307,307,307,307,
0,0,0,0,0,0,0,0,0,0,0,0,0,0,0,0,
0,0,0,0,0,0,0,0,0,0,0,0,0,0,0,0,
0,0,0,0,0,0,0,0,0,0,0,0,0,0,0,0,
0,0,0,0,0,0,0,0,0,0,0,0,0,0,0,0,
0,0,0,0,0,0,0,0,0,0,0,0,0,0,0,0,
0,0,0,0,0,0,0,0,0,0,0,0,0,0,0,0,
0,0,0,0,0,0,0,0,0,0,0,0,0,0,0,0,
0,0,0,0,0,0,0,0,0,0,0,0,0,0,0,0,
0,0,0,0,0,0,0,0,0,0,0,0,0,0,0,0,
0,0,0,0,0,0,0,0,0,0,0,0,0,0,0,0,
0,0,0,0,0,0,0,0,0,0,0,0,0,0,0,0,
0,0,0,0,0,0,0,0,0,0,0,0,0,0,0,0,
0,0,0,0,0,0,0,0,0,0,0,0,0,0,0,0,
0,0,0,0,0,0,0,0,0,0,0,0,0,0,0,0
</chunk>
    <chunk x="0" y="16" width="16" height="16">
562,582,551,566,561,550,525,581,277,0,0,0,0,0,0,0,
307,307,307,307,307,307,307,307,293,0,0,0,0,0,0,0,
0,0,0,0,0,0,0,0,0,0,0,0,0,0,0,0,
0,0,0,0,0,0,0,0,0,0,0,0,0,0,0,0,
0,0,0,0,0,0,0,0,0,0,0,0,0,0,0,0,
0,0,0,0,0,0,0,0,0,0,0,0,0,0,0,0,
0,0,0,0,0,0,0,0,0,0,0,0,0,0,0,0,
0,0,0,0,0,0,0,0,0,0,0,0,0,0,0,0,
0,0,0,0,0,0,0,0,0,0,0,0,0,0,0,0,
0,0,0,0,0,0,0,0,0,0,0,0,0,0,0,0,
0,0,0,0,0,0,0,0,0,0,0,0,0,0,0,0,
0,0,0,0,0,0,0,0,0,0,0,0,0,0,0,0,
0,0,0,0,0,0,0,0,0,0,0,0,0,0,0,0,
0,0,0,0,0,0,0,0,0,0,0,0,0,0,0,0,
0,0,0,0,0,0,0,0,0,0,0,0,0,0,0,0,
0,0,0,0,0,0,0,0,0,0,0,0,0,0,0,0
</chunk>
   </data>
  </layer>
  <layer id="4" name="Tile Layer 2" width="30" height="30">
   <data encoding="csv">
    <chunk x="-16" y="0" width="16" height="16">
0,0,0,0,0,0,0,0,0,0,0,0,0,0,0,0,
0,0,0,0,0,0,0,0,0,0,0,0,0,0,0,0,
0,0,0,0,0,0,0,0,0,0,0,0,0,0,0,0,
0,0,0,0,0,0,0,0,0,0,0,0,0,0,0,0,
0,0,0,0,0,0,0,0,0,0,0,0,0,0,0,0,
0,0,0,0,0,0,0,0,0,0,0,0,0,0,0,0,
0,0,0,0,0,0,0,0,0,0,0,0,0,0,0,0,
0,0,0,0,0,0,0,0,0,0,0,0,0,0,0,0,
0,0,0,0,0,0,0,0,0,0,0,0,0,0,1208,1145,
0,0,0,0,0,0,0,0,0,0,0,0,0,0,1337,1338,
0,0,0,0,0,0,0,0,0,0,0,0,0,0,1337,1274,
0,0,0,0,0,0,0,0,0,0,0,0,0,0,1337,1338,
0,0,0,0,0,0,0,0,0,0,0,0,0,0,1402,1146,
0,0,0,0,0,0,0,0,0,0,0,0,0,0,0,0,
0,0,0,0,0,0,0,0,0,0,0,0,0,0,0,0,
0,0,0,0,0,0,0,0,0,0,0,0,0,0,0,0
</chunk>
    <chunk x="0" y="0" width="16" height="16">
0,0,0,0,0,0,0,0,0,0,0,0,0,0,0,0,
0,0,0,0,0,0,0,0,0,0,0,0,0,0,0,0,
0,0,0,0,0,0,0,0,0,0,0,0,0,0,0,0,
0,0,0,0,0,0,0,0,0,0,0,0,0,0,0,0,
0,0,0,0,0,0,0,0,0,0,0,0,0,0,0,0,
0,0,0,0,0,0,0,0,0,0,0,0,0,0,0,0,
0,0,0,0,0,0,0,0,0,0,0,0,0,0,0,0,
0,0,0,0,0,0,0,0,0,0,0,0,0,0,0,0,
1209,1209,1276,0,0,0,0,0,0,0,0,0,0,0,0,0,
1339,1274,1275,1276,0,0,0,0,0,0,0,0,0,0,0,0,
1340,1338,1404,1341,0,0,0,0,0,0,0,0,0,0,0,0,
1339,1338,1274,1341,0,0,0,0,0,0,0,0,0,0,0,0,
1146,1146,1469,1406,0,0,0,0,0,0,0,0,0,0,0,0,
0,0,0,0,0,0,0,0,0,0,0,0,0,0,0,0,
0,0,0,0,0,0,0,0,0,0,0,0,0,0,0,0,
0,0,0,0,0,0,0,0,0,0,0,0,0,0,0,0
</chunk>
   </data>
  </layer>
 </group>
</map>
